X: 124
T: Gdy z okrutnej Babilony
C: Mikołaj Gomółka
%%abc-version 2.0
%%abcx-abcm2ps-target-version 5.9.1 (29 Sep 2008)
%%abc-creator hum2abc beta
%%abcx-conversion-date 2021/10/04 07:59:10
%%abc-edited-by Leszek Kubiak
%%abcx-initial-encoding-date data 2020-02-20
%%humdrum-veritas 2726963225
%%humdrum-veritas-data 3196969653
%%linebreak <none>
%%barnumbers 0
L: 1/4
M: C
N: Derived from pl-wn--sd-xvi-qu-273--126_gomolka-mikolaj--gdy-z-okrutnej-babilony.krn
%%staves [1 2 3 4]
V: 1
V: 2 clef=alto
V: 3 clef=tenor
V: 4 clef=bass
K: C
[V:1] B4B2B2 [|] 
[V:2] G4G2G3 [|] 
[V:3] D4D2D2 [|] 
[V:4] G,4G,2G,2 [|] 
[V:1] cBA4BA [|] 
[V:2] FE4F2 [|] 
[V:3] ED2<C2B,/C/DC [|] 
[V:4] E,2A,4D,2 [|] 
[V:1] GA2GA2FG [|] 
[V:2] E2>D2C2D2 [|] 
[V:3] B,A,B,2A,2A,2 [|] 
[V:4] E,4A,,2D,E, [|] 
[V:1] AG_BAGFG3 [|] 
[V:2] C2FEDCD2 [|] 
[V:3] A,2F,2B,4 [|] 
[V:4] F,E,D,C,_B,,4 [|] 
[V:1] FF4E2 [|] 
[V:2] C2_B,2C3B, [|] 
[V:3] A,2G,F,G,A,G,2 [|] 
[V:4] C,2D,2C,4 [|] 
[V:1] F2E2E2E2 [|] 
[V:2] A,2C2C2C2 [|] 
[V:3] F,2G,2A,2A,2 [|] 
[V:4] F,,2C,2A,,2A,,2 [|] 
[V:1] E2c4A2 [|] 
[V:2] B,2E4C2 [|] 
[V:3] ^G,2A,2A,4 [|] 
[V:4] E,2A,,4F,2 [|] 
[V:1] G4^F2A2 [|] 
[V:2] G,4A,2D2 [|] 
[V:3] B,2>C2D2A,2 [|] 
[V:4] E,4D,2D,2 [|] 
[V:1] A2A2_B4 [|] 
[V:2] E2F2E2D4 [|] 
[V:3] A,2A,2G,4 [|] 
[V:4] ^C,2D,2G,,4 [|] 
[V:1] B2B2A3G [|] 
[V:2] ^CB,CD2C [|] 
[V:3] G,2>F,2E,D,E,2 [|] 
[V:4] G,,2G,,2A,,4 [|] 
[V:1] ^F32 [|] 
[V:2] D32 [|] 
[V:3] D,32 [|] 
[V:4] D,32 [|] 


